src/images/GeneFit/D2C3.svg

<svg fill="none" height="100" viewBox="0 0 100 100" width="100" xmlns="http://www.w3.org/2000/svg"><g clip-rule="evenodd" fill="#ec8539" fill-rule="evenodd"><path d="m50.0361 20c1.9891 0 3.8968-.7902 5.3033-2.1967s2.1967-3.3142 2.1967-5.3033-.7902-3.89679-2.1967-5.30331-3.3142-2.1967-5.3033-2.1967-3.8968.79018-5.3033 2.1967-2.1967 3.31421-2.1967 5.30331.7902 3.8968 2.1967 5.3033 3.3142 2.1967 5.3033 2.1967zm0 5c3.3152 0 6.4946-1.317 8.8388-3.6612s3.6612-5.5236 3.6612-8.8388c0-3.31522-1.317-6.49464-3.6612-8.83884s-5.5236-3.66116-8.8388-3.66116-6.4946 1.31696-8.8388 3.66116-3.6612 5.52362-3.6612 8.83884c0 3.3152 1.317 6.4946 3.6612 8.8388s5.5236 3.6612 8.8388 3.6612z"/><path d="m33.4712 35.7851c1.1438.2178 2.1758.8279 2.9179 1.7252s1.1478 2.0254 1.147 3.1898v51.8c0 .663.2634 1.2989.7323 1.7678.4688.4688 1.1047.7322 1.7677.7322h.2175c.6242 0 1.2257-.2334 1.6865-.6544.4607-.4209.7474-.999.8035-1.6206l2.2925-25.225c0-1.3261.5268-2.5978 1.4645-3.5355s2.2095-1.4645 3.5355-1.4645c1.3261 0 2.5979.5268 3.5356 1.4645.9376.9377 1.4644 2.2094 1.4644 3.5355l2.2925 25.225c.0562.6216.3428 1.1997.8036 1.6206.4608.421 1.0623.6544 1.6864.6544h.2175c.6631 0 1.299-.2634 1.7678-.7322.4688-.4689.7322-1.1048.7322-1.7678v-51.7075c-.0001-1.1639.4058-2.2915 1.1479-3.1883.742-.8967 1.7737-1.5065 2.9171-1.7242 4.39-.835 9.0325-1.9925 14.135-3.48.3152-.0919.6092-.245.8652-.4505.256-.2056.469-.4595.6268-.7474.1579-.2878.2575-.604.2932-.9303.0357-.3264.0067-.6566-.0852-.9717-.0919-.3152-.245-.6092-.4506-.8652-.2055-.256-.4595-.469-.7473-.6269-.2879-.1578-.604-.2575-.9304-.2931-.3263-.0357-.6565-.0068-.9717.0852-11.585 3.3749-20.475 4.9399-29.29 4.8999-8.825-.04-17.7249-1.685-29.3424-4.9074-.3186-.095-.6529-.1255-.9833-.0898-.3305.0358-.6505.1371-.9414.298-.2908.1609-.5467.3782-.7525.6392-.2059.2609-.3577.5604-.4464.8807-.0888.3203-.1128.6551-.0706.9848s.1497.6477.3162.9354c.1666.2877.3888.5392.6537.74.265.2007.5673.3466.8893.4291 5.0825 1.41 9.715 2.54 14.1025 3.375zm14.0099 58.7225c-.4388 1.5796-1.3831 2.9719-2.6884 3.9638-1.3053.992-2.8996 1.5286-4.5391 1.5286h-.2175c-1.9891 0-3.8967-.7901-5.3032-2.1966-1.4066-1.4065-2.1967-3.3142-2.1967-5.3033v-51.8c-4.565-.87-9.3375-2.04-14.505-3.475-.9688-.2451-1.8789-.6814-2.6767-1.2832s-1.4673-1.357-1.9691-2.2212c-.5019-.8642-.8259-1.8199-.9532-2.8111s-.0552-1.9978.212-2.9608c.2672-.9629.7242-1.8627 1.3441-2.6466.6198-.7839 1.3901-1.4359 2.2655-1.9179.8755-.482 1.8384-.7841 2.8322-.8888.9939-.1046 1.9986-.0095 2.9552.2797 11.425 3.1675 19.8374 4.6875 28.0274 4.725 8.165.035 16.545-1.4 27.87-4.7.95-.2909 1.9483-.3902 2.937-.292s1.948.3918 2.8222.8639c.8742.472 1.646 1.1131 2.2704 1.8859s1.089 1.6619 1.3669 2.6158.3635 1.9535.2518 2.9407-.4184 1.9425-.9023 2.8102c-.484.8677-1.1355 1.6306-1.9167 2.2444-.7813.6138-1.6767 1.0662-2.6343 1.331-5.21 1.52-10.0125 2.72-14.5975 3.5925v51.7075c0 1.9891-.7902 3.8968-2.1967 5.3033s-3.3142 2.1966-5.3033 2.1966h-.2175c-1.8715 0-3.6755-.6992-5.0577-1.9611s-2.2426-2.995-2.4123-4.8588l-2.2925-25.225c-.0131-.1471-.0197-.2948-.02-.4425 0 .1475-.0075.2925-.02.44l-2.295 25.225c-.0404.4495-.1208.8946-.24 1.33z"/></g></svg>

<svg width="100" height="100" viewBox="0 0 100 100" fill="none" xmlns="http://www.w3.org/2000/svg">
<path fill-rule="evenodd" clip-rule="evenodd" d="M50.0361 20C52.0252 20 53.9329 19.2098 55.3394 17.8033C56.7459 16.3968 57.5361 14.4891 57.5361 12.5C57.5361 10.5109 56.7459 8.60321 55.3394 7.19669C53.9329 5.79017 52.0252 4.99999 50.0361 4.99999C48.047 4.99999 46.1393 5.79017 44.7328 7.19669C43.3263 8.60321 42.5361 10.5109 42.5361 12.5C42.5361 14.4891 43.3263 16.3968 44.7328 17.8033C46.1393 19.2098 48.047 20 50.0361 20ZM50.0361 25C53.3513 25 56.5307 23.683 58.8749 21.3388C61.2191 18.9946 62.5361 15.8152 62.5361 12.5C62.5361 9.18478 61.2191 6.00536 58.8749 3.66116C56.5307 1.31696 53.3513 0 50.0361 0C46.7209 0 43.5415 1.31696 41.1973 3.66116C38.8531 6.00536 37.5361 9.18478 37.5361 12.5C37.5361 15.8152 38.8531 18.9946 41.1973 21.3388C43.5415 23.683 46.7209 25 50.0361 25V25Z" fill="#EC8539"/>
<path fill-rule="evenodd" clip-rule="evenodd" d="M33.4712 35.7851C34.615 36.0029 35.647 36.613 36.3891 37.5103C37.1312 38.4076 37.5369 39.5357 37.5361 40.7001V92.5001C37.5361 93.1631 37.7995 93.799 38.2684 94.2679C38.7372 94.7367 39.3731 95.0001 40.0361 95.0001H40.2536C40.8778 95.0001 41.4793 94.7667 41.9401 94.3457C42.4008 93.9248 42.6875 93.3467 42.7436 92.7251L45.0361 67.5001C45.0361 66.174 45.5629 64.9023 46.5006 63.9646C47.4383 63.0269 48.7101 62.5001 50.0361 62.5001C51.3622 62.5001 52.634 63.0269 53.5717 63.9646C54.5093 64.9023 55.0361 66.174 55.0361 67.5001L57.3286 92.7251C57.3848 93.3467 57.6714 93.9248 58.1322 94.3457C58.593 94.7667 59.1945 95.0001 59.8186 95.0001H60.0361C60.6992 95.0001 61.3351 94.7367 61.8039 94.2679C62.2727 93.799 62.5361 93.1631 62.5361 92.5001V40.7926C62.536 39.6287 62.9419 38.5011 63.684 37.6043C64.426 36.7076 65.4577 36.0978 66.6011 35.8801C70.9911 35.0451 75.6336 33.8876 80.7361 32.4001C81.0513 32.3082 81.3453 32.1551 81.6013 31.9496C81.8573 31.744 82.0703 31.4901 82.2281 31.2022C82.386 30.9144 82.4856 30.5982 82.5213 30.2719C82.557 29.9455 82.528 29.6153 82.4361 29.3002C82.3442 28.985 82.1911 28.691 81.9855 28.435C81.78 28.179 81.526 27.966 81.2382 27.8081C80.9503 27.6503 80.6342 27.5506 80.3078 27.515C79.9815 27.4793 79.6513 27.5082 79.3361 27.6002C67.7511 30.9751 58.8611 32.5401 50.0461 32.5001C41.2211 32.4601 32.3212 30.8151 20.7037 27.5927C20.3851 27.4977 20.0508 27.4672 19.7204 27.5029C19.3899 27.5387 19.0699 27.64 18.779 27.8009C18.4882 27.9618 18.2323 28.1791 18.0265 28.4401C17.8206 28.701 17.6688 29.0005 17.5801 29.3208C17.4913 29.6411 17.4673 29.9759 17.5095 30.3056C17.5517 30.6353 17.6592 30.9533 17.8257 31.241C17.9923 31.5287 18.2145 31.7802 18.4794 31.981C18.7444 32.1817 19.0467 32.3276 19.3687 32.4101C24.4512 33.8201 29.0837 34.9501 33.4712 35.7851ZM47.4811 94.5076C47.0423 96.0872 46.098 97.4795 44.7927 98.4714C43.4874 99.4634 41.8931 100 40.2536 100H40.0361C38.047 100 36.1394 99.2099 34.7329 97.8034C33.3263 96.3969 32.5362 94.4892 32.5362 92.5001V40.7001C27.9712 39.8301 23.1987 38.6601 18.0312 37.2251C17.0624 36.98 16.1523 36.5437 15.3545 35.9419C14.5567 35.3401 13.8872 34.5849 13.3854 33.7207C12.8835 32.8565 12.5595 31.9008 12.4322 30.9096C12.3049 29.9184 12.377 28.9118 12.6442 27.9488C12.9114 26.9859 13.3684 26.0861 13.9883 25.3022C14.6081 24.5183 15.3784 23.8663 16.2538 23.3843C17.1293 22.9023 18.0922 22.6002 19.086 22.4955C20.0799 22.3909 21.0846 22.486 22.0412 22.7752C33.4662 25.9427 41.8786 27.4627 50.0686 27.5002C58.2336 27.5352 66.6136 26.1002 77.9386 22.8002C78.8886 22.5093 79.8869 22.41 80.8756 22.5082C81.8643 22.6064 82.8236 22.9 83.6978 23.3721C84.572 23.8441 85.3438 24.4852 85.9682 25.258C86.5926 26.0308 87.0572 26.9199 87.3351 27.8738C87.613 28.8277 87.6986 29.8273 87.5869 30.8145C87.4752 31.8017 87.1685 32.757 86.6846 33.6247C86.2006 34.4924 85.5491 35.2553 84.7679 35.8691C83.9866 36.4829 83.0912 36.9353 82.1336 37.2001C76.9236 38.7201 72.1211 39.9201 67.5361 40.7926V92.5001C67.5361 94.4892 66.7459 96.3969 65.3394 97.8034C63.9329 99.2099 62.0252 100 60.0361 100H59.8186C57.9471 100 56.1431 99.3008 54.7609 98.0389C53.3787 96.777 52.5183 95.0439 52.3486 93.1801L50.0561 67.9551C50.043 67.808 50.0364 67.6603 50.0361 67.5126C50.0361 67.6601 50.0286 67.8051 50.0161 67.9526L47.7211 93.1776C47.6807 93.6271 47.6003 94.0722 47.4811 94.5076Z" fill="#EC8539"/>
</svg>
